src/Stylesheets/user.svg

<?xml version="1.0" encoding="iso-8859-1"?>
<!-- Generator: Adobe Illustrator 19.0.0, SVG Export Plug-In . SVG Version: 6.00 Build 0)  -->
<svg version="1.1" id="Layer_1" xmlns="http://www.w3.org/2000/svg" xmlns:xlink="http://www.w3.org/1999/xlink" x="0px" y="0px"
	 viewBox="0 0 455.001 455.001" style="enable-background:new 0 0 455.001 455.001;" xml:space="preserve">
<g>
	<g>
		<g>
			<path d="M227.5,0.001C101.761,0.001,0,101.751,0,227.501C0,353.24,101.75,455,227.5,455c125.739,0,227.501-101.75,227.501-227.5
				C455.001,101.761,353.25,0.001,227.5,0.001z M227.5,425.001c-108.902,0-197.5-88.599-197.5-197.5S118.598,30.001,227.5,30.001
				s197.501,88.599,197.501,197.5S336.402,425.001,227.5,425.001z"/>
			<path d="M301.704,229.209c-5.987,8.545-12.854,15.821-20.735,21.932c23.004,16.63,38.004,43.68,38.004,74.171
				c0,13.765-37.566,29.103-91.473,29.103s-91.473-15.337-91.473-29.103c0-30.491,15-57.541,38.004-74.171
				c-7.825-6.069-14.7-13.322-20.735-21.932c-28.733,22.236-47.269,57.044-47.269,96.104c0,14.273,7.476,34.04,43.09,47.153
				c20.929,7.706,48.766,11.95,78.383,11.95s57.454-4.244,78.383-11.95c35.614-13.113,43.09-32.879,43.09-47.153
				C348.973,286.253,330.437,251.446,301.704,229.209z"/>
			<path d="M227.5,239.657c36.522,0,64.635-35.304,64.635-77.036c0-41.761-28.136-77.036-64.635-77.036
				c-36.514,0-64.635,35.294-64.635,77.036C162.865,204.373,190.993,239.657,227.5,239.657z M227.5,109.98
				c22.188,0,40.24,23.615,40.24,52.641c0,29.027-18.052,52.642-40.24,52.642s-40.24-23.615-40.24-52.642
				C187.26,133.595,205.312,109.98,227.5,109.98z"/>
		</g>
	</g>
</g>
<g>
</g>
<g>
</g>
<g>
</g>
<g>
</g>
<g>
</g>
<g>
</g>
<g>
</g>
<g>
</g>
<g>
</g>
<g>
</g>
<g>
</g>
<g>
</g>
<g>
</g>
<g>
</g>
<g>
</g>
</svg>

<svg width="455" height="455" viewBox="0 0 455 455" fill="none" xmlns="http://www.w3.org/2000/svg">
<g clip-path="url(#clip0_2:2)">
<path d="M227.5 0.00100708C101.761 0.00100708 0 101.751 0 227.501C0 353.24 101.75 455 227.5 455C353.239 455 455.001 353.25 455.001 227.5C455.001 101.761 353.25 0.00100708 227.5 0.00100708ZM227.5 425.001C118.598 425.001 30 336.402 30 227.501C30 118.6 118.598 30.001 227.5 30.001C336.402 30.001 425.001 118.6 425.001 227.501C425.001 336.402 336.402 425.001 227.5 425.001Z" fill="white"/>
<path d="M301.704 229.209C295.717 237.754 288.85 245.03 280.969 251.141C303.973 267.771 318.973 294.821 318.973 325.312C318.973 339.077 281.407 354.415 227.5 354.415C173.593 354.415 136.027 339.078 136.027 325.312C136.027 294.821 151.027 267.771 174.031 251.141C166.206 245.072 159.331 237.819 153.296 229.209C124.563 251.445 106.027 286.253 106.027 325.313C106.027 339.586 113.503 359.353 149.117 372.466C170.046 380.172 197.883 384.416 227.5 384.416C257.117 384.416 284.954 380.172 305.883 372.466C341.497 359.353 348.973 339.587 348.973 325.313C348.973 286.253 330.437 251.446 301.704 229.209Z" fill="white"/>
<path d="M227.5 239.657C264.022 239.657 292.135 204.353 292.135 162.621C292.135 120.86 263.999 85.585 227.5 85.585C190.986 85.585 162.865 120.879 162.865 162.621C162.865 204.373 190.993 239.657 227.5 239.657ZM227.5 109.98C249.688 109.98 267.74 133.595 267.74 162.621C267.74 191.648 249.688 215.263 227.5 215.263C205.312 215.263 187.26 191.648 187.26 162.621C187.26 133.595 205.312 109.98 227.5 109.98Z" fill="white"/>
</g>
<defs>
<clipPath id="clip0_2:2">
<rect width="455.001" height="455.001" fill="white"/>
</clipPath>
</defs>
</svg>
